client/src/assets/search-solid.svg

<?xml version="1.0" encoding="UTF-8"?>
<!DOCTYPE svg  PUBLIC '-//W3C//DTD SVG 20010904//EN'  'http://www.w3.org/TR/2001/REC-SVG-20010904/DTD/svg10.dtd'>
<svg width="122.88pt" height="122.88pt" viewBox="0 0 122.88 122.88" xmlns="http://www.w3.org/2000/svg">
<path transform="scale(.24)" d="m505 442.7-99.7-99.7c-4.5-4.5-10.6-7-17-7h-16.3c27.6-35.3 44-79.7 44-128 0-114.9-93.1-208-208-208s-208 93.1-208 208 93.1 208 208 208c48.3 0 92.7-16.4 128-44v16.3c0 6.4 2.5 12.5 7 17l99.7 99.7c9.4 9.4 24.6 9.4 33.9 0l28.3-28.3c9.4-9.4 9.4-24.6 0.1-34zm-297-106.7c-70.7 0-128-57.2-128-128 0-70.7 57.2-128 128-128 70.7 0 128 57.2 128 128 0 70.7-57.2 128-128 128z" fill="#b9bbbe" stroke="#000" stroke-linecap="square" stroke-linejoin="bevel" stroke-opacity="0" stroke-width="0"/>
</svg>

<?xml version="1.0" standalone="no"?>
<!DOCTYPE svg PUBLIC "-//W3C//DTD SVG 20010904//EN" "http://www.w3.org/TR/2001/REC-SVG-20010904/DTD/svg10.dtd">
<!-- Created using Krita: https://krita.org -->
<svg xmlns="http://www.w3.org/2000/svg" 
    xmlns:xlink="http://www.w3.org/1999/xlink"
    xmlns:krita="http://krita.org/namespaces/svg/krita"
    xmlns:sodipodi="http://sodipodi.sourceforge.net/DTD/sodipodi-0.dtd"
    width="122.88pt"
    height="122.88pt"
    viewBox="0 0 122.88 122.88">
<defs/>
<path id="shape0" transform="matrix(0.24 0 0 0.24 0 0)" fill="#b9bbbe" stroke-opacity="0" stroke="#000000" stroke-width="0" stroke-linecap="square" stroke-linejoin="bevel" d="M505 442.7L405.3 343C400.8 338.5 394.7 336 388.3 336L372 336C399.6 300.7 416 256.3 416 208C416 93.1 322.9 0 208 0C93.1 0 0 93.1 0 208C0 322.9 93.1 416 208 416C256.3 416 300.7 399.6 336 372L336 388.3C336 394.7 338.5 400.8 343 405.3L442.7 505C452.1 514.4 467.3 514.4 476.6 505L504.9 476.7C514.3 467.3 514.3 452.1 505 442.7ZM208 336C137.3 336 80 278.8 80 208C80 137.3 137.2 80 208 80C278.7 80 336 137.2 336 208C336 278.7 278.8 336 208 336Z" sodipodi:nodetypes="cccccccccccccccccccc"/>
</svg>
